X:1
T:Title
%%score ( 1 2 ) { ( 3 4 ) | 5 }
L:1/8
Q:1/4=88
M:4/4
K:F
V:1 treble nm="Strings 1, Soprano"
V:2 treble 
V:3 bass nm="Choir Pad, Sugarloaf Mountain, LMD"
V:4 bass 
V:5 bass 
V:1
 z2 z A- A4 | z2 z =A- A4 | z2 z G- G4 | z2 z =A- A4 | z2 z A- A4 | z2 z B- B4 | z2 z =A- A4 | %7
 z2 z F- F4 | [FA][GB]- [GB]/[_A=B]/[=Ac]- [Ac]4 | [Ac][Bd]- [Bd]/[_A=B]/[=Ac]- [Ac]4 | %10
 [Ac][GB]- [GB]/[^FA]/[GB]- [GB]4 | [Bd][Ac]- [Ac]/[GB]/[FA]- [FA]4 | z2 z A- A4 | z2 z B- B4 | %14
 z2 z =A- A4 | [FA][EG]- [EG]/[CE]/[CF]- [CF]4- | [CF]2 z2 z4 |] %17
V:2
 AF- F<.G FF- F/F/F | AB- B<._A FF- F/F/F | AG- G<.^F EE- E/E/E | BA- A<._A FF- F/F/F | %4
 AF- F<.G FF- F/F/F | cc- c<.c FF- F/F/F | BA- A<._A FF- F/F/F | AG- G<.E CC- C/C/C | x8 | x8 | %10
 x8 | x8 | AF- F<.G FF- F/F/F | cc- c<.c FF- F/F/F | BA- A<._A FF- F/F/F | x8 | x8 |] %17
V:3
 z2 z C- C4 | z2 z C- C4 | z2 z B,- B,4 | z2 z C- C4 | z2 z C- C4 | z2 z D- D4 | z2 z C- C4 | %7
 z2 z A,- A,4 | z4[K:treble] FF- F/F/F | z4 FF- F/F/F | z4 EE- E/E/E | z4 CC- C/C/C | %12
 z2[K:bass] z C- C4 | z2 z D- D4 | z2 z C- C4 | CB,- B,/G,/A,- A,4- | A,2 z2 z4 |] %17
V:4
 CA,- A,<.B, F,F,- F,/F,/F, | CD- D<.=B, F,F,- F,/F,/F, | CB,- B,<.A, C,C,- C,/C,/C, | %3
 DC- C<.=B, F,F,- F,/F,/F, | CA,- A,<.B, F,F,- F,/F,/F, | _EE- E<.E B,,B,,- B,,/B,,/B,, | %6
 DC- C<.=B, C,C,- C,/C,/C, | CB,- B,<.G, F,F,- F,/F,/F, | x4[K:treble] x4 | x8 | x8 | x8 | %12
 C[K:bass]A,- A,<.B, F,F,- F,/F,/F, | _EE- E<.E B,,B,,- B,,/B,,/B,, | DC- C<.=B, C,C,- C,/C,/C, | %15
 x8 | x8 |] %17
V:5
 z8 | z8 | z8 | z8 | z8 | z8 | z8 | z8 | z4 F,F,- F,/F,/F, | z4 F,F,- F,/F,/F, | %10
 z4 C,C,- C,/C,/C, | z4 F,F,- F,/F,/F, | z8 | z8 | z8 | C,C,- C,/C,/[F,,F,]- [F,,F,]4- | %16
 [F,,F,]2 z2 z4 |] %17

